build/svg/cmd/32/iconsetformatdialog.svg

<svg xmlns="http://www.w3.org/2000/svg" viewBox="0 0 32 32"><path d="M5 4h22v23H5z" fill="#fff"/><path d="M7 3C5 3 4 3 4 5v21c0 2 1 2 3 2h18c2 0 3 0 3-2V5c0-2-1-2-3-2zM5 5c0-1 1-1 2-1h18c1 0 2 0 2 1v21c0 1-1 1-2 1H7c-1 0-2 0-2-1z" fill="#6d6d6d"/><path d="M10 4h1v23h-1z" fill="#6d6d6d"/><path d="M5 9h22v1H5zM5 15h22v1H5zM5 21h22v1H5z" fill="#6d6d6d"/><path fill="#c7162b" d="M6 6h3v1H6z"/><path d="M7 11v1H6v1h1v1h1v-1h1v-1H8v-1H7zM7 17v1H6v1h1v1h1v-1h1v-1H8v-1H7z" fill="#46a926"/><path fill="#c7162b" d="M6 24h3v1H6z"/><circle r="4.5" cx="22.5" cy="27.5" fill="#c7162b"/><path d="M20 27v1h5v-1z" style="line-height:normal;text-indent:0;text-align:start;text-decoration-line:none;text-decoration-style:solid;text-decoration-color:#000;text-transform:none;white-space:normal;isolation:auto;mix-blend-mode:normal;marker:none" font-weight="400" overflow="visible" color="#000" font-family="sans-serif" fill="#fff"/><circle cy="24.5" cx="27.5" r="4.5" fill="#46a926"/><path overflow="visible" font-weight="400" style="line-height:normal;text-indent:0;text-align:start;text-decoration-line:none;text-decoration-style:solid;text-decoration-color:#000;text-transform:none;white-space:normal;isolation:auto;mix-blend-mode:normal;marker:none" d="M27 22v2h-2v1h2v2h1v-2h2v-1h-2v-2z" color="#000" font-family="sans-serif" fill="#fff"/></svg>

<?xml version="1.0" encoding="UTF-8" standalone="no"?>
<svg
   xmlns:dc="http://purl.org/dc/elements/1.1/"
   xmlns:cc="http://creativecommons.org/ns#"
   xmlns:rdf="http://www.w3.org/1999/02/22-rdf-syntax-ns#"
   xmlns:svg="http://www.w3.org/2000/svg"
   xmlns="http://www.w3.org/2000/svg"
   xmlns:sodipodi="http://sodipodi.sourceforge.net/DTD/sodipodi-0.dtd"
   xmlns:inkscape="http://www.inkscape.org/namespaces/inkscape"
   viewBox="0 0 32 32"
   version="1.1"
   id="svg12"
   sodipodi:docname="iconsetformatdialog.svg"
   inkscape:version="0.92.5 (2060ec1f9f, 2020-04-08)"
   inkscape:export-filename="/home/jupiter007/Libreoffice yaru theme fullcolor/build/cmd/32/iconsetformatdialog.png"
   inkscape:export-xdpi="96"
   inkscape:export-ydpi="96">
  <metadata
     id="metadata18">
    <rdf:RDF>
      <cc:Work
         rdf:about="">
        <dc:format>image/svg+xml</dc:format>
        <dc:type
           rdf:resource="http://purl.org/dc/dcmitype/StillImage" />
      </cc:Work>
    </rdf:RDF>
  </metadata>
  <defs
     id="defs16" />
  <sodipodi:namedview
     pagecolor="#ffffff"
     bordercolor="#666666"
     borderopacity="1"
     objecttolerance="10"
     gridtolerance="10"
     guidetolerance="10"
     inkscape:pageopacity="0"
     inkscape:pageshadow="2"
     inkscape:window-width="1920"
     inkscape:window-height="1011"
     id="namedview14"
     showgrid="true"
     inkscape:zoom="20.85965"
     inkscape:cx="16.924721"
     inkscape:cy="12.770687"
     inkscape:window-x="0"
     inkscape:window-y="32"
     inkscape:window-maximized="1"
     inkscape:current-layer="svg12">
    <inkscape:grid
       type="xygrid"
       id="grid828" />
  </sodipodi:namedview>
  <path
     style="opacity:1;fill:#ffffff;fill-opacity:1;stroke:none;stroke-width:2;stroke-linejoin:round;stroke-miterlimit:4;stroke-dasharray:none;stroke-opacity:1"
     d="M 5,4 H 27 V 27 H 5 Z"
     id="rect841"
     inkscape:connector-curvature="0"
     sodipodi:nodetypes="ccccc" />
  <path
     style="opacity:1;fill:#6d6d6d;fill-opacity:1;stroke:none;stroke-width:2;stroke-linejoin:round;stroke-miterlimit:4;stroke-dasharray:none;stroke-opacity:1"
     d="M 7,3 C 5,3 4,3 4,5 v 21 c 0,2 1,2 3,2 h 18 c 2,0 3,0 3,-2 V 5 C 28,3 27,3 25,3 Z M 5,5 C 5,4 6,4 7,4 h 18 c 1,0 2,0 2,1 v 21 c 0,1 -1,1 -2,1 H 7 C 6,27 5,27 5,26 Z"
     id="rect830"
     inkscape:connector-curvature="0"
     sodipodi:nodetypes="sssssssssccccccccc" />
  <path
     style="opacity:1;fill:#6d6d6d;fill-opacity:1;stroke:none;stroke-width:2;stroke-linejoin:round;stroke-miterlimit:4;stroke-dasharray:none;stroke-opacity:1"
     d="m 10,4 h 1 v 23 h -1 z"
     id="rect839"
     inkscape:connector-curvature="0"
     sodipodi:nodetypes="ccccc" />
  <path
     style="opacity:1;fill:#6d6d6d;fill-opacity:1;stroke:none;stroke-width:2;stroke-linejoin:round;stroke-miterlimit:4;stroke-dasharray:none;stroke-opacity:1"
     d="m 5,9 h 22 v 1 H 5 Z"
     id="rect845"
     inkscape:connector-curvature="0"
     sodipodi:nodetypes="ccccc" />
  <path
     style="opacity:1;fill:#6d6d6d;fill-opacity:1;stroke:none;stroke-width:2;stroke-linejoin:round;stroke-miterlimit:4;stroke-dasharray:none;stroke-opacity:1"
     d="m 5,15 h 22 v 1 H 5 Z"
     id="rect847"
     inkscape:connector-curvature="0"
     sodipodi:nodetypes="ccccc" />
  <path
     style="opacity:1;fill:#6d6d6d;fill-opacity:1;stroke:none;stroke-width:2;stroke-linejoin:round;stroke-miterlimit:4;stroke-dasharray:none;stroke-opacity:1"
     d="m 5,21 h 22 v 1 H 5 Z"
     id="rect849"
     inkscape:connector-curvature="0"
     sodipodi:nodetypes="ccccc" />
  <rect
     style="opacity:1;fill:#c7162b;fill-opacity:1;stroke:none;stroke-width:2;stroke-linejoin:round;stroke-miterlimit:4;stroke-dasharray:none;stroke-opacity:1"
     id="rect865"
     width="3"
     height="1"
     x="6"
     y="6" />
  <path
     style="opacity:1;fill:#46a926;fill-opacity:1;stroke:none;stroke-width:2;stroke-linejoin:round;stroke-miterlimit:4;stroke-dasharray:none;stroke-opacity:1"
     d="M 7 11 L 7 12 L 6 12 L 6 13 L 7 13 L 7 14 L 8 14 L 8 13 L 9 13 L 9 12 L 8 12 L 8 11 L 7 11 z "
     id="rect867" />
  <path
     style="opacity:1;fill:#46a926;fill-opacity:1;stroke:none;stroke-width:2;stroke-linejoin:round;stroke-miterlimit:4;stroke-dasharray:none;stroke-opacity:1"
     d="M 7 17 L 7 18 L 6 18 L 6 19 L 7 19 L 7 20 L 8 20 L 8 19 L 9 19 L 9 18 L 8 18 L 8 17 L 7 17 z "
     id="rect871" />
  <rect
     style="opacity:1;fill:#c7162b;fill-opacity:1;stroke:none;stroke-width:2;stroke-linejoin:round;stroke-miterlimit:4;stroke-dasharray:none;stroke-opacity:1"
     id="rect875"
     width="3"
     height="1"
     x="6"
     y="24" />
  <circle
     r="4.5"
     cx="22.5"
     cy="27.5"
     id="circle887"
     style="opacity:1;vector-effect:none;fill:#c7162b;fill-opacity:1;stroke:none;stroke-width:4.49999952;stroke-linecap:butt;stroke-linejoin:round;stroke-miterlimit:4;stroke-dasharray:none;stroke-dashoffset:0;stroke-opacity:1" />
  <path
     d="m 19.999999,27 v 1 H 25 v -1 z"
     style="color:#000000;font-weight:400;line-height:normal;font-family:sans-serif;text-indent:0;text-align:start;text-decoration:none;text-decoration-line:none;text-decoration-style:solid;text-decoration-color:#000000;text-transform:none;white-space:normal;overflow:visible;isolation:auto;mix-blend-mode:normal;fill:#ffffff;fill-opacity:1;marker:none"
     font-weight="400"
     overflow="visible"
     id="path889"
     inkscape:connector-curvature="0"
     sodipodi:nodetypes="ccccc" />
  <circle
     style="opacity:1;vector-effect:none;fill:#46a926;fill-opacity:1;stroke:none;stroke-width:4.49999952;stroke-linecap:butt;stroke-linejoin:round;stroke-miterlimit:4;stroke-dasharray:none;stroke-dashoffset:0;stroke-opacity:1"
     id="path2644"
     cy="24.5"
     cx="27.5"
     r="4.5" />
  <path
     inkscape:connector-curvature="0"
     id="path1063"
     overflow="visible"
     font-weight="400"
     style="color:#000000;font-weight:400;line-height:normal;font-family:sans-serif;text-indent:0;text-align:start;text-decoration:none;text-decoration-line:none;text-decoration-style:solid;text-decoration-color:#000000;text-transform:none;white-space:normal;overflow:visible;isolation:auto;mix-blend-mode:normal;fill:#ffffff;fill-opacity:1;marker:none"
     d="m 27,22 v 2 h -2.000001 v 1 H 27 v 2 h 1 v -2 h 2 v -1 h -2 v -2 z" />
</svg>
